X:66
T:Lone Star Rising
R:waltz
C: 1990, 2010 L.E. McCullough 
M:3/4
L:1/8
K:D
a2 a2|:fe d2 aa|fe d2 aa|b2a2g2|
a4 aa|fe d2 aa|fe d2 Bd|f2 e2 d2|
e4 aa|fe d2 aa|fe d2 aa|b2 a2 e2|
f4 ef|ed-d2 fe|fe-e2 BA|ed2-d2B|1 d4 aa:|2 d4 fd|]
|:ec A2 fd|ec A2 BA|Bd gb ag|f4 fe|
Bd gb ag|fe ag fe|=ce ga gd|
f4 ef|ec A2 ef|ec A2 BA|Bd gb ag|f4 fe|
ed-d fe|fe-e2 BA|ed2-d2 g/f/|[1 d4 fd:|2 d4 aa|]
<end>
<start>
